packages/icons/src/emoji/svg/tree.svg

<svg width="120" height="120" viewBox="0 0 120 120" fill="none" xmlns="http://www.w3.org/2000/svg">
<path d="M67.416 108.656C66.5816 104.325 66.5066 99.8907 66.066 95.5126C66.0003 94.9407 65.9347 94.3594 65.9159 93.7876C65.8878 92.5688 65.2785 91.7626 64.1347 91.3126C63.5441 91.0782 62.7847 91.1157 62.1659 91.0126C61.4909 90.9001 60.8535 90.8532 60.1691 90.8719C60.1128 90.8719 60.0566 90.8813 60.0003 90.8907C59.9479 90.8793 59.8946 90.873 59.841 90.8719C59.1566 90.8532 58.5097 90.9001 57.8347 91.0126C57.2066 91.1157 56.4566 91.0782 55.8566 91.3126C54.7128 91.7626 54.1035 92.5688 54.0753 93.7876C54.0566 94.3594 53.9909 94.9407 53.9347 95.5126C53.4941 99.9001 53.4191 104.325 52.5847 108.656C51.9097 112.209 47.6628 117.938 53.3628 119.241C57.6003 120.197 62.4003 120.206 66.6378 119.241C72.3472 117.947 68.1003 112.209 67.416 108.656Z" fill="#855C52"/>
<path d="M106.003 83.3438C99.5623 81.5344 94.4998 79.1251 90.9185 77.0719C90.6654 76.8469 90.2998 76.6594 90.4217 76.2938C90.506 76.0594 90.8154 75.9657 91.0404 75.9188C93.1967 75.6282 95.0435 75.3188 96.3842 74.9907C103.912 73.1907 103.969 68.3907 103.969 68.3907C103.969 68.3907 105.075 62.6438 98.3154 60.7594C92.3623 59.0907 87.581 56.9063 84.056 54.9563C83.8123 54.7969 83.5873 54.6282 83.6904 54.3376C83.7467 54.1782 83.8685 54.1032 84.0092 54.0657C85.1154 53.9344 86.1279 53.8032 86.9623 53.6438C93.4873 52.4438 93.7498 48.3188 93.7498 48.3188C93.7498 48.3188 94.8467 43.7344 89.2592 41.5313C84.0654 39.4876 78.8529 36.4313 75.4217 34.2376C75.2435 34.0501 75.0092 33.8063 75.1217 33.5532C75.2248 33.3094 75.5154 33.2907 75.7404 33.2626H75.7685L76.7717 33.3751C76.7717 33.3751 82.5467 34.4719 84.3373 29.5219C86.1279 24.5719 80.6248 21.9563 80.6248 21.9563C69.7685 16.8657 62.6154 2.41881 62.6154 2.41881C61.0967 -0.468693 59.9998 0.0844315 59.9998 0.0844315C59.9998 0.0844315 58.9029 -0.468693 57.3935 2.42818C57.3935 2.42818 50.2404 16.8751 39.3748 21.9563C39.3748 21.9563 33.8717 24.5719 35.6529 29.5219C37.4435 34.4719 43.2279 33.3751 43.2279 33.3751L44.231 33.2626H44.2498C44.4842 33.3001 44.7654 33.3094 44.8779 33.5532C44.9904 33.8063 44.756 34.0501 44.5779 34.2376C41.1467 36.4219 35.9342 39.4782 30.7404 41.5313C25.1435 43.7344 26.2404 48.3188 26.2404 48.3188C26.2404 48.3188 26.5029 52.4344 33.0279 53.6438C33.8717 53.8032 34.8842 53.9344 35.981 54.0657C36.1217 54.1126 36.2435 54.1876 36.2904 54.3376C36.3935 54.6282 36.1685 54.7969 35.9248 54.9563C32.3998 56.9063 27.6185 59.0907 21.6654 60.7594C14.9154 62.6532 16.0217 68.3907 16.0217 68.3907C16.0217 68.3907 16.0779 73.2001 23.606 74.9907C24.956 75.3188 26.8029 75.6282 28.9498 75.9188C29.1654 75.9657 29.4935 76.0688 29.5685 76.2938C29.6904 76.6594 29.3248 76.8469 29.0717 77.0719C25.4904 79.1344 20.4279 81.5438 13.9779 83.3438C7.22791 85.2376 8.32478 90.9657 8.32478 90.9657C8.32478 90.9657 8.44666 95.5407 15.9092 97.5751C18.9935 98.4094 23.3154 98.4376 28.1154 97.9876C28.7904 98.0157 29.5123 97.9407 30.1029 98.2969C30.8342 98.7376 30.8623 99.6844 31.0779 100.416C31.2842 101.119 31.5373 101.813 31.8935 102.441C35.0717 108.15 42.8904 106.041 48.5435 102.244C49.0967 101.925 49.7342 101.681 50.3904 101.578C51.281 101.428 52.2092 101.531 52.9967 101.972C53.0623 102.009 53.1467 102.066 53.2123 102.113C53.831 102.638 54.4779 103.125 55.181 103.528C56.456 104.269 58.0498 104.634 59.4748 104.972C62.1092 105.6 65.4748 105.131 67.9498 103.575C68.0529 103.519 68.156 103.444 68.2217 103.406C68.2873 103.369 68.3342 103.322 68.3998 103.275C68.4748 103.219 68.5498 103.172 68.6154 103.116C68.8685 102.928 69.1123 102.731 69.3748 102.563C69.8998 102.234 70.5092 102.009 71.1279 101.963C71.4092 101.944 71.681 101.963 71.9529 102.009C72.3748 102.103 72.7967 102.263 73.1623 102.478C73.2373 102.516 73.3498 102.591 73.4623 102.647C79.0592 106.228 86.5123 108.056 89.5967 102.516C89.9529 101.869 90.206 101.184 90.4029 100.491C90.6185 99.7501 90.656 98.8126 91.3779 98.3626C91.8654 98.0719 92.4373 98.0719 92.9998 98.0626C97.3217 98.4001 101.184 98.3157 104.015 97.5469C111.478 95.5126 111.6 90.9376 111.6 90.9376C111.6 90.9376 112.753 85.2376 106.003 83.3438Z" fill="#757F3F"/>
<path d="M48.4221 27.6844C49.4815 28.0969 50.1658 28.9126 51.6939 28.3126C52.6689 27.9282 53.5408 26.4751 53.6814 25.4719C53.8877 23.9157 52.8283 24.2907 51.8158 23.7938C51.5158 23.0063 52.3971 21.7594 51.9471 20.8782C51.3002 19.6219 49.3127 20.9626 48.7315 21.6282C47.8033 22.6876 47.0158 23.4751 45.7127 24.1594C44.8408 24.6188 41.1565 26.5594 42.9658 27.8813C43.3408 28.1532 43.7252 28.1907 44.1752 28.1907C45.3565 28.1813 46.5471 27.3751 47.6721 27.5063C47.9533 27.5251 48.1971 27.5907 48.4221 27.6844ZM37.5846 44.1188C36.244 44.5969 33.3846 46.3688 35.1846 48.0094C36.4408 49.1626 39.1221 48.4969 40.594 48.1313C41.2127 47.9813 42.0189 47.5501 42.6658 47.5876C43.3596 47.6251 43.369 48.1313 43.594 48.6938C44.0627 49.8469 44.9158 50.0719 46.0971 50.0719C46.8096 50.0719 47.3815 50.1094 48.0283 49.8001C49.5658 49.0688 49.4627 49.4344 50.8783 49.9407C52.5283 50.5313 53.9533 49.7157 54.919 48.3844C55.2377 47.9532 55.4815 47.2876 55.4533 46.7719C55.4065 45.7688 54.7033 45.2532 53.6627 45.3938C52.6127 45.5438 51.8908 45.7782 51.319 44.7094C50.5783 43.3032 48.4408 45.0563 47.9252 44.0438C47.6908 43.6032 48.1877 42.6469 48.1033 42.1219C48.0002 41.4657 47.6158 40.9688 46.9221 40.8563C45.8346 40.6782 44.944 40.9688 44.0721 41.4469C42.4408 42.3376 41.0252 43.0501 39.2533 43.6126C38.8033 43.7344 38.2127 43.8938 37.5846 44.1188ZM39.9002 59.9907C39.0002 59.8688 37.9408 60.2438 37.1908 60.6094C34.1158 62.1094 31.069 63.6938 27.9658 65.1563C26.869 65.6719 25.1252 66.1876 25.1815 67.7063C25.2658 70.4813 30.0565 69.3001 31.6596 69.1126C33.0752 68.9532 35.3908 68.3907 36.5533 69.5344C37.2283 70.1907 37.5471 70.5844 38.5315 70.6876C40.1908 70.8657 42.3565 69.1969 43.8471 70.0032C44.4658 70.3313 44.8127 70.7813 45.5065 71.0157C47.1846 71.5969 49.2283 70.9032 50.6065 69.8719C51.7783 69.0001 52.6127 66.4782 51.0189 65.6251C49.9783 65.0626 49.144 66.0844 48.1783 65.9063C46.7158 65.6438 47.0721 64.5376 46.0408 63.7407C44.794 62.7751 42.8533 64.3969 41.944 63.4407C41.1846 62.6438 41.6908 61.3126 41.0252 60.5626C40.7064 60.2157 40.3221 60.0469 39.9002 59.9907ZM36.7033 81.8532C34.144 81.3563 31.5564 83.2782 29.3533 84.2626C26.9252 85.3407 24.2346 85.5094 21.8346 86.6626C20.2408 87.4313 20.4002 89.8501 21.9565 90.5438C23.3815 91.1719 25.2002 90.9938 26.7096 90.9094C28.9408 90.7876 31.0596 89.8219 33.2908 89.6157C36.3377 89.3438 36.4877 90.1594 37.0033 92.7751C37.3877 94.6688 39.394 95.7001 41.2315 95.3063C42.1877 95.1001 43.0221 94.2751 43.9221 93.8813C45.0471 93.3844 44.9908 93.5251 46.069 93.8907C46.8471 94.1532 47.8502 94.1344 48.6096 93.8438C49.8846 93.3657 50.4846 92.3626 50.5127 91.0782C50.5502 89.0813 50.5315 86.4657 47.7752 87.2251C44.7658 88.0594 45.7408 86.4282 43.5471 85.6126C41.9908 85.0313 40.5471 86.5219 39.1221 85.2469C37.9971 84.2532 38.6533 82.2844 36.7033 81.8532Z" fill="#BDCF46"/>
</svg>

<svg xmlns="http://www.w3.org/2000/svg" fill="none" aria-hidden="true" data-slot="icon" viewBox="0 0 120 120"><path fill="#855C52" d="M67.416 108.656c-.834-4.331-.91-8.765-1.35-13.143a21 21 0 0 1-.15-1.725c-.028-1.22-.638-2.025-1.781-2.475-.59-.235-1.35-.197-1.97-.3a10 10 0 0 0-1.996-.141c-.056 0-.112.01-.169.019a1 1 0 0 0-.159-.02 10.3 10.3 0 0 0-2.006.142c-.628.103-1.378.065-1.978.3-1.144.45-1.754 1.256-1.782 2.475-.018.571-.084 1.153-.14 1.725-.44 4.387-.516 8.812-1.35 13.143-.675 3.553-4.922 9.282.778 10.585 4.237.956 9.037.965 13.275 0 5.71-1.294 1.462-7.032.778-10.585"/><path fill="#757F3F" d="M106.003 83.344c-6.44-1.81-11.503-4.219-15.085-6.272-.253-.225-.618-.413-.496-.778.084-.235.393-.328.618-.375 2.157-.29 4.003-.6 5.344-.928 7.528-1.8 7.585-6.6 7.585-6.6s1.106-5.747-5.654-7.632c-5.953-1.668-10.734-3.853-14.259-5.803-.244-.16-.469-.328-.366-.618.057-.16.178-.235.32-.272 1.105-.132 2.118-.263 2.952-.422 6.525-1.2 6.788-5.325 6.788-5.325s1.097-4.585-4.49-6.788c-5.195-2.043-10.407-5.1-13.838-7.293-.178-.188-.413-.432-.3-.685.103-.244.393-.262.618-.29h.029l1.003.112s5.775 1.097 7.565-3.853-3.712-7.566-3.712-7.566C69.769 16.866 62.615 2.42 62.615 2.42 61.097-.47 60 .084 60 .084s-1.097-.553-2.606 2.344c0 0-7.154 14.447-18.02 19.528 0 0-5.502 2.616-3.721 7.566 1.79 4.95 7.575 3.853 7.575 3.853l1.003-.112h.019c.234.037.515.046.628.29.112.253-.122.497-.3.685-3.431 2.184-8.644 5.24-13.838 7.293-5.596 2.203-4.5 6.788-4.5 6.788s.263 4.115 6.788 5.325c.844.16 1.856.29 2.953.422.14.047.262.122.31.272.103.29-.122.459-.366.618-3.525 1.95-8.306 4.135-14.26 5.803-6.75 1.894-5.643 7.632-5.643 7.632s.056 4.81 7.584 6.6c1.35.328 3.197.637 5.344.928.215.047.544.15.619.375.121.365-.244.553-.497.778-3.582 2.062-8.644 4.472-15.094 6.272-6.75 1.894-5.653 7.622-5.653 7.622s.122 4.575 7.584 6.61c3.085.833 7.406.862 12.206.412.675.028 1.397-.047 1.988.309.731.44.76 1.387.975 2.119.206.703.46 1.397.816 2.025 3.178 5.709 10.996 3.6 16.65-.197a5.4 5.4 0 0 1 1.846-.666c.891-.15 1.82-.047 2.607.394.065.037.15.094.215.141.619.525 1.266 1.012 1.969 1.415 1.275.741 2.869 1.106 4.294 1.444 2.634.628 6 .159 8.475-1.397.103-.056.206-.131.272-.169.065-.037.112-.084.178-.131.075-.056.15-.103.215-.159.254-.188.497-.385.76-.553.525-.329 1.134-.554 1.753-.6.281-.019.553 0 .825.046.422.094.844.254 1.21.469.074.038.187.113.3.169 5.596 3.581 13.05 5.409 16.134-.131a9.6 9.6 0 0 0 .806-2.025c.215-.74.253-1.678.975-2.128.487-.291 1.06-.291 1.622-.3 4.322.337 8.184.253 11.015-.516 7.463-2.034 7.585-6.61 7.585-6.61s1.153-5.7-5.597-7.593"/><path fill="#BDCF46" d="M48.422 27.684c1.06.413 1.744 1.229 3.272.629.975-.385 1.847-1.838 1.987-2.841.207-1.556-.853-1.181-1.865-1.678-.3-.788.581-2.035.131-2.916-.647-1.256-2.634.085-3.216.75-.928 1.06-1.715 1.847-3.018 2.531-.872.46-4.556 2.4-2.747 3.722.375.272.76.31 1.21.31 1.18-.01 2.371-.816 3.496-.685.281.02.525.085.75.178M37.585 44.12c-1.341.478-4.2 2.25-2.4 3.89 1.256 1.154 3.937.488 5.409.122.619-.15 1.425-.58 2.072-.543.694.037.703.543.928 1.106.469 1.153 1.322 1.378 2.503 1.378.713 0 1.285.037 1.931-.272 1.538-.731 1.435-.366 2.85.14 1.65.591 3.075-.224 4.041-1.556.319-.43.563-1.096.534-1.612-.047-1.003-.75-1.519-1.79-1.378-1.05.15-1.772.384-2.344-.685-.74-1.406-2.878.347-3.394-.665-.234-.44.263-1.397.178-1.922-.103-.656-.487-1.153-1.18-1.266-1.088-.178-1.979.113-2.85.59-1.632.892-3.048 1.604-4.82 2.167-.45.121-1.04.28-1.668.506M39.9 59.99c-.9-.122-1.96.253-2.71.618-3.074 1.5-6.121 3.085-9.224 4.547-1.097.516-2.84 1.032-2.785 2.55.085 2.775 4.875 1.594 6.479 1.407 1.415-.16 3.73-.722 4.893.421.675.657.994 1.05 1.979 1.154 1.659.178 3.825-1.491 5.315-.685.619.328.966.778 1.66 1.013 1.678.58 3.721-.113 5.1-1.144 1.171-.872 2.006-3.394.412-4.247-1.04-.562-1.875.46-2.84.281-1.463-.262-1.107-1.368-2.138-2.165-1.247-.966-3.188.656-4.097-.3-.76-.797-.253-2.128-.919-2.878a1.8 1.8 0 0 0-1.125-.572m-3.197 21.862c-2.559-.497-5.147 1.425-7.35 2.41-2.428 1.078-5.118 1.246-7.518 2.4-1.594.768-1.435 3.187.121 3.88 1.425.629 3.244.45 4.754.366 2.23-.121 4.35-1.087 6.58-1.293 3.048-.272 3.198.543 3.713 3.16.385 1.893 2.391 2.924 4.228 2.53.957-.206 1.791-1.03 2.691-1.425 1.125-.497 1.069-.356 2.147.01.778.262 1.781.243 2.54-.047 1.276-.478 1.876-1.481 1.904-2.766.037-1.997.019-4.612-2.738-3.853-3.01.834-2.034-.797-4.228-1.612-1.556-.582-3 .909-4.425-.366-1.125-.994-.469-2.963-2.419-3.394"/></svg>
